svg/fast_forward_15.svg

<svg xmlns="http://www.w3.org/2000/svg" viewBox="0 0 24 24"><path d="M11.5 3c2.65 0 5.05 1 6.9 2.6L21 3v7h-7l2.62-2.62C15.23 6.22 13.46 5.5 11.5 5.5c-3.54 0-6.55 2.31-7.6 5.5l-2.37-.78C2.92 6.03 6.85 3 11.5 3M10 12v10H8v-8H6v-2zm2 0h6v2h-4v2h2a2 2 0 0 1 2 2v2c0 1.11-.89 2-2 2h-4v-2h4v-2h-4z"/></svg>

<svg xmlns="http://www.w3.org/2000/svg" id="mdi-fast-forward-15" viewBox="0 0 24 24"><path d="M11.5 3C14.15 3 16.55 4 18.4 5.6L21 3V10H14L16.62 7.38C15.23 6.22 13.46 5.5 11.5 5.5C7.96 5.5 4.95 7.81 3.9 11L1.53 10.22C2.92 6.03 6.85 3 11.5 3M10 12V22H8V14H6V12H10M12 12H18V14H14V16H16C17.11 16 18 16.9 18 18V20C18 21.11 17.11 22 16 22H12V20H16V18H12V12Z" /></svg>
